en/_assets/options-grey.svg

<svg width="21" height="10" viewBox="0 0 21 10" fill="none" xmlns="http://www.w3.org/2000/svg">
<path fill-rule="evenodd" clip-rule="evenodd" d="M2.28205 5C2.28205 3.89493 3.19993 3 4.33333 3C5.46674 3 6.38462 3.89493 6.38462 5C6.38462 6.10507 5.46674 7 4.33333 7C3.19993 7 2.28205 6.10507 2.28205 5ZM10.4871 3C9.35371 3 8.43583 3.89493 8.43583 5C8.43583 6.10507 9.35371 7 10.4871 7C11.6205 7 12.5384 6.10507 12.5384 5C12.5384 3.89493 11.6205 3 10.4871 3ZM16.641 3C15.5076 3 14.5897 3.89493 14.5897 5C14.5897 6.10507 15.5076 7 16.641 7C17.7744 7 18.6923 6.10507 18.6923 5C18.6923 3.89493 17.7744 3 16.641 3Z" fill="#666"/>
</svg>

<svg xmlns="http://www.w3.org/2000/svg" width="21" height="10" fill="none"><path fill="#666" fill-rule="evenodd" d="M2.282 5c0-1.105.918-2 2.051-2 1.134 0 2.052.895 2.052 2s-.918 2-2.052 2C3.2 7 2.282 6.105 2.282 5Zm8.205-2c-1.133 0-2.051.895-2.051 2s.918 2 2.051 2 2.051-.895 2.051-2-.918-2-2.05-2Zm6.154 0c-1.133 0-2.051.895-2.051 2s.918 2 2.051 2 2.051-.895 2.051-2-.918-2-2.051-2Z" clip-rule="evenodd"/></svg>
